X: 3313
T: Bella's Dance
R: reel
M: 4/4
K: Eminor
|:"Em" B2 cB A2 BA|G2 F2 EF GE|"B" F2 B,2 C2 B,2|"Em" GF EF G2 B2|
"D7"c2 A2 cA A2|"G"d2 B2 A2 G2|"Am"c2 BA F2 DC|"Em"B,2 E2 E4:|
|:"Em"GG G2 F2 G2|"Am"C2 F2 G2 A2|"G" D2 B2 A2 G2|"Am" e2 A2 B2 c2|
"G"d2 G2"Am" e2 A2|"B" f2 B2"Em" g2 a2|b2 ag"B" f2 dc|"Em" B2 e2 e4:|

